shelter/assets/icons/icon-phone.svg

<svg width="40" height="32" viewBox="0 0 40 32" fill="none" xmlns="http://www.w3.org/2000/svg">
<path d="M39.9461 8.89543L37.5102 2.9049C37.4685 2.80251 37.4043 2.71139 37.3226 2.63868C37.2408 2.56598 37.1437 2.51367 37.0389 2.48585L34.111 1.70799C25.5388 -0.569376 14.4609 -0.569281 5.88906 1.70799L2.96105 2.48585C2.85626 2.51367 2.75918 2.56598 2.67743 2.63868C2.59568 2.71139 2.53147 2.80251 2.48984 2.9049L0.0539764 8.89543C-0.0131281 9.06038 -0.0178273 9.24503 0.0407965 9.41333L1.01509 12.2089C1.07166 12.3713 1.18339 12.5075 1.32986 12.5925C1.47633 12.6775 1.64776 12.7056 1.8128 12.6717L11.0692 10.7747C11.2084 10.7462 11.3359 10.675 11.4348 10.5706C11.5337 10.4661 11.5993 10.3334 11.623 10.19L12.4245 5.32594C16.8365 4.18994 23.1635 4.18994 27.5753 5.32594L28.3769 10.19C28.4006 10.3335 28.4662 10.4663 28.5651 10.5707C28.664 10.6751 28.7915 10.7463 28.9307 10.7748L38.187 12.6718C38.3521 12.7056 38.5234 12.6774 38.6699 12.5924C38.8164 12.5075 38.9281 12.3714 38.9848 12.209L39.9592 9.41343C40.0178 9.2451 40.0131 9.06043 39.9461 8.89543ZM2.13193 11.1412L1.63183 9.70624L10.5973 7.78606L10.321 9.46295L2.13193 11.1412ZM11.6222 4.0568C11.4935 4.09314 11.3777 4.16636 11.2883 4.26784C11.1989 4.36933 11.1396 4.49486 11.1174 4.62969L10.848 6.26453L1.85991 8.1896L3.65015 3.78707L6.2409 3.09877C14.5991 0.878304 25.4007 0.878208 33.7593 3.09877L36.35 3.78707L38.1403 8.1896L29.1522 6.26453L28.8828 4.62969C28.8606 4.49487 28.8013 4.36936 28.7119 4.26788C28.6224 4.1664 28.5066 4.09318 28.378 4.0568C23.6016 2.70615 16.3984 2.70615 11.6222 4.0568ZM37.8681 11.1412L29.6792 9.46295L29.4028 7.78606L38.3682 9.70624L37.8681 11.1412Z" fill="#F1CDB3"/>
<path d="M33.2901 13.1186C33.261 12.9842 33.1948 12.8612 33.0995 12.7643C33.0041 12.6673 32.8836 12.6005 32.7522 12.5717L27.9776 11.526L27.3764 7.51395C27.351 7.34431 27.2672 7.18959 27.1401 7.07781C27.013 6.96603 26.851 6.90458 26.6835 6.90458H24.814V5.96398C24.814 5.56724 24.5002 5.2456 24.1129 5.2456C23.7257 5.2456 23.4119 5.56724 23.4119 5.96398V6.90458H16.5882V5.96398C16.5882 5.56724 16.2744 5.2456 15.8871 5.2456C15.4999 5.2456 15.1861 5.56724 15.1861 5.96398V6.90458H13.3166C13.1491 6.90458 12.9871 6.96603 12.86 7.07781C12.7329 7.18959 12.6491 7.34431 12.6237 7.51395L12.0224 11.526L7.24791 12.5717C7.11654 12.6005 6.996 12.6673 6.90063 12.7643C6.80527 12.8612 6.73908 12.9842 6.70996 13.1186L3.46796 28.0878C3.45692 28.1389 3.45134 28.1911 3.45132 28.2434V31.2816C3.45132 31.4721 3.52519 31.6549 3.65666 31.7896C3.78814 31.9243 3.96645 32 4.15239 32H35.8477C36.0336 32 36.212 31.9243 36.3434 31.7896C36.4749 31.6549 36.5488 31.4721 36.5488 31.2816V28.2434C36.5488 28.1911 36.5432 28.1389 36.5321 28.0878L33.2901 13.1186ZM7.98131 13.8802L12.7885 12.8273C12.9276 12.7968 13.0544 12.7238 13.152 12.6178C13.2496 12.5118 13.3134 12.3779 13.335 12.2338L13.9183 8.34134H26.0819L26.6651 12.2338C26.6867 12.3779 26.7505 12.5118 26.8481 12.6178C26.9457 12.7238 27.0725 12.7968 27.2115 12.8273L32.0189 13.8802L34.9741 27.5251H5.0261L7.98131 13.8802ZM11.7966 28.9618L10.8935 30.5632H9.82782L10.7309 28.9618H11.7966ZM13.416 28.9618H28.6721L27.769 30.5632H12.513L13.416 28.9618ZM4.85345 28.9618H9.11142L8.20836 30.5632H4.85345V28.9618ZM29.3885 30.5632L30.2916 28.9618H35.1466V30.5632H29.3885Z" fill="#F1CDB3"/>
<path d="M20 26.1606C24.1492 26.1606 27.5248 22.7016 27.5248 18.45C27.5248 14.1983 24.1492 10.7393 20 10.7393C15.8509 10.7393 12.4753 14.1983 12.4753 18.45C12.4753 22.7016 15.8509 26.1606 20 26.1606ZM20 12.1761C23.3761 12.1761 26.1227 14.9905 26.1227 18.45C26.1227 21.9094 23.3761 24.7238 20 24.7238C16.624 24.7238 13.8774 21.9094 13.8774 18.45C13.8774 14.9905 16.624 12.1761 20 12.1761Z" fill="#F1CDB3"/>
<path d="M20 21.1847C21.4717 21.1847 22.6691 19.9578 22.6691 18.4497C22.6691 16.9416 21.4717 15.7147 20 15.7147C18.5283 15.7147 17.3309 16.9416 17.3309 18.4497C17.3309 19.9578 18.5283 21.1847 20 21.1847ZM20 17.1514C20.6987 17.1514 21.267 17.7338 21.267 18.4497C21.267 19.1656 20.6987 19.7479 20 19.7479C19.3014 19.7479 18.733 19.1656 18.733 18.4497C18.733 17.7339 19.3014 17.1514 20 17.1514Z" fill="#F1CDB3"/>
</svg>

<svg width="40" height="32" fill="none" xmlns="http://www.w3.org/2000/svg"><path d="M39.946 8.895l-2.436-5.99a.696.696 0 0 0-.471-.419l-2.928-.778c-8.572-2.277-19.65-2.277-28.222 0l-2.928.778a.695.695 0 0 0-.471.419L.054 8.895a.735.735 0 0 0-.013.518l.974 2.796a.714.714 0 0 0 .315.383.686.686 0 0 0 .483.08l9.256-1.897c.14-.029.267-.1.366-.204a.726.726 0 0 0 .188-.381l.802-4.864c4.412-1.136 10.738-1.136 15.15 0l.802 4.864c.024.144.09.276.188.38a.696.696 0 0 0 .366.205l9.256 1.897a.686.686 0 0 0 .483-.08.714.714 0 0 0 .315-.383l.974-2.796a.736.736 0 0 0-.013-.518zM2.132 11.141l-.5-1.435 8.965-1.92-.276 1.677-8.19 1.678zm9.49-7.084a.698.698 0 0 0-.334.21.726.726 0 0 0-.17.363l-.27 1.635L1.86 8.19l1.79-4.403L6.24 3.1c8.36-2.22 19.16-2.22 27.52 0l2.59.688 1.79 4.403-8.988-1.925-.27-1.635a.726.726 0 0 0-.17-.362.7.7 0 0 0-.334-.211c-4.776-1.35-11.98-1.35-16.756 0zm26.246 7.084L29.68 9.463l-.276-1.677 8.965 1.92-.5 1.435z" fill="#F1CDB3"/><path d="M33.29 13.119a.724.724 0 0 0-.19-.355.696.696 0 0 0-.348-.192l-4.774-1.046-.602-4.012a.723.723 0 0 0-.236-.436.691.691 0 0 0-.457-.173h-1.869v-.941a.71.71 0 0 0-.701-.718.71.71 0 0 0-.701.718v.94h-6.824v-.94a.71.71 0 0 0-.7-.718.71.71 0 0 0-.702.718v.94h-1.87a.691.691 0 0 0-.456.174.723.723 0 0 0-.236.436l-.602 4.012-4.774 1.046a.696.696 0 0 0-.347.192.723.723 0 0 0-.191.355L3.468 28.088a.738.738 0 0 0-.017.155v3.039c0 .19.074.373.206.508.131.134.31.21.495.21h31.696a.693.693 0 0 0 .495-.21.728.728 0 0 0 .206-.508v-3.039a.733.733 0 0 0-.017-.155l-3.242-14.97zm-25.309.761l4.808-1.053a.697.697 0 0 0 .363-.21.726.726 0 0 0 .183-.383l.583-3.893h12.164l.583 3.893a.726.726 0 0 0 .183.384.697.697 0 0 0 .364.21l4.807 1.052 2.955 13.645H5.026L7.981 13.88zm3.816 15.082l-.904 1.601H9.829l.903-1.601h1.066zm1.619 0h15.256l-.903 1.601H12.513l.903-1.601zm-8.563 0h4.258l-.903 1.601H4.853v-1.601zm24.535 1.601l.904-1.601h4.855v1.601h-5.758z" fill="#F1CDB3"/><path d="M20 26.16c4.15 0 7.525-3.458 7.525-7.71S24.149 10.74 20 10.74c-4.15 0-7.525 3.458-7.525 7.71s3.376 7.71 7.525 7.71zm0-13.984c3.376 0 6.123 2.815 6.123 6.274 0 3.46-2.747 6.274-6.123 6.274-3.376 0-6.123-2.815-6.123-6.274 0-3.46 2.747-6.274 6.123-6.274z" fill="#F1CDB3"/><path d="M20 21.185c1.472 0 2.67-1.227 2.67-2.735 0-1.508-1.198-2.735-2.67-2.735s-2.67 1.227-2.67 2.735c0 1.508 1.198 2.735 2.67 2.735zm0-4.034c.699 0 1.267.583 1.267 1.299s-.568 1.298-1.267 1.298-1.267-.582-1.267-1.298c0-.716.568-1.299 1.267-1.299z" fill="#F1CDB3"/></svg>
